X: 1
T: Valse des Jouets
T: Waltz of the Toys
C: Michel Faubert
M: 3/4
L: 1/8
S: Fiddle Hell Online 2020-__-__
Z: 2021 John Chambers <jc:trillian.mit.edu>
N: (Chords from the Roaring Jelly collection)
R: waltz
K: D
FAd \
| "D"fe fg fe | "G"dB AF D2 | "D"fe fg fe | "G"dB AF D2 \
|"Em"ed ef ed | "A"c2 cd cB | "A"AE AB cA | "D"dB AF D2 |
| "D"fe fg fe | "G"dB AF D2 | "D"fe fg fe |"Bm"dB AF D2 \
|"Em"ed ef ed | "A"c2 cd cB |"A7"AB AG FE | "D"D3 :|
|: ddc \
| "D"dA FA GA | "G"B3 d dB |  "A"cA Bc de | "D"f3  f df \
|"Bm"bf df bf |"Em"g3 e ed | "A7"cA ce ag | "D"f2 d2 c2 |
|"Bm"BF FB BF | "G"G3 e ed |  "A"cB AG FE |"F#"F4    F2 \
| "G"GF GA Bc | "D"de f3 f | "A7"ge ce BA | "D"d3 :|
